X:1
T:Title
%%score { ( 1 4 ) | ( 2 3 ) }
L:1/8
Q:1/4=100
M:4/4
K:A
V:1 treble nm="Grand Piano"
V:4 treble 
V:2 bass 
V:3 bass 
V:1
 [A,CE]2 .[A,CF]2 [A,CE]2 [CA][DB] | [Ec]2 [Fd]2 cB [EA]2 | F2 A2 E2 [CA]2 | B2 c2 B4 | %4
w: Chas.~H.~Gabriel * * * *||||
 [CE]2 .[CF]2 [A,CE]2 [CA][DB] | [Ec]2 [Fd]2 cB [EA]2 | B2 B2 B2 c2 | BA[EG]F E4 | B2 cB B2 E2 | %9
w: |||||
 z2 .F2 z4 | [Ee]2 [Fd]2 c2 AB |[M:17/16] c-<cB-<B[CA]/-[CA]/-[CA]/-[CA]/-[CA]/-[CA]-<[CA] | %12
w: |||
[M:1/8] [CE] |[M:4/4] [Ec]4 [Ec]2 [CA][CB] | [DA]4 [DG]2 G2 | [Gd]4 [Gd]2 [DF][EG] | %16
w: ||||
[M:3/4] [DF]4 [CE]2 |[M:1/4] [CE]2 |[M:4/4] [EA]2 [EA][EA] B2 BB | c2 [A,EA]2 [A,DF]2 [DFB]2 | %20
w: ||||
 A2 A2 G3 A | [CA]6 z2 |] %22
w: ||
V:2
 A,,2 z E A,,2 [A,,E,]2 | [A,,A,]2 [A,,A,]2 [A,,A,][B,,G,] [C,A,]2 | %2
 [D,A,D]2 [D,F,D]2 [C,A,]2 [A,,A,]2 | [E,G,E]2 [E,A,E]2 [E,G,E]4 | [A,,A,]2 z E A,,2 [A,,E,]2 | %5
 [A,,A,]2 [A,,A,]2 [A,,A,][B,,G,] [C,A,]2 | [E,G,E]2 [F,A,^D]2[K:treble] [G,B,E]2 [A,E]2 | %7
 [B,EG][B,F][K:bass]B,[A,^D] [E,G,]4 | [E,G,D]2 [E,G,D]2 [E,G,D]2 [E,G,D]2 | %9
 [A,,A,]2 [A,,A,]2 [A,,A,]2 [A,,A,]2 | [C,A,]2 [D,A,]2 [E,A,E]2 [F,A,^D]2 | %11
[M:17/16] [E,A,E]-<[E,A,E][E,G,D]-<[E,G,D][A,,A,]/-[A,,A,]/-[A,,A,]/-[A,,A,]/-[A,,A,]/-[A,,A,]-<[A,,A,] | %12
[M:1/8] [A,,A,] |[M:4/4] [A,,A,]4 [A,,A,]2 [A,,E,][A,,E,] | [B,,E,]4 [B,,E,]2 [E,D]2 | %15
 [E,B,]4 [E,B,]2 [E,G,][E,G,] |[M:3/4] [A,,A,]4 [A,,A,]2 |[M:1/4] [A,,A,]2 | %18
[M:4/4] [C,A,]2 [C,A,][C,A,] [E,G,E]2 [E,G,E][E,G,E] | [A,E]2 C,2 D,2 B,,2 | %20
 [E,CE]2 [E,CE]2 [E,B,E]3 [E,D] | [A,,E,]6 z2 |] %22
V:3
 z2 A,,2 z4 | x8 | x8 | x8 | z2 [A,,A,]2 z4 | x8 | x4[K:treble] x4 | z2[K:bass] B,,2 z4 | x8 | x8 | %10
 x8 |[M:17/16] x17/2 |[M:1/8] x |[M:4/4] x8 | x8 | x8 |[M:3/4] x6 |[M:1/4] x2 |[M:4/4] x8 | x8 | %20
 x8 | x8 |] %22
V:4
 x8 | z4 E2 z2 | x8 | x8 | x8 | z4 E2 z2 | x8 | x8 | x8 | [CE]2 C-[CE] [CE]2 [CA][Ec] | x8 | %11
[M:17/16] x17/2 |[M:1/8] x |[M:4/4] x8 | x8 | x8 |[M:3/4] x6 |[M:1/4] x2 |[M:4/4] x8 | x8 | x8 | %21
 x8 |] %22

